www/assets/icons/rotate_right.svg

<svg width="24" height="24" viewBox="0 0 24 24" xmlns="http://www.w3.org/2000/svg" fill='currentColor'><path d="M15.585 7.08516L11.035 2.53516V5.60516C7.09497 6.09516 4.03497 9.45516 4.03497 13.5352C4.03497 17.6152 7.08497 20.9752 11.035 21.4652V19.4452C8.19497 18.9652 6.03497 16.5052 6.03497 13.5352C6.03497 10.5652 8.19497 8.10516 11.035 7.62516V11.5352L15.585 7.08516ZM19.965 12.5352C19.795 11.1452 19.245 9.80516 18.345 8.64516L16.925 10.0652C17.465 10.8152 17.805 11.6652 17.945 12.5352H19.965ZM13.035 19.4352V21.4552C14.425 21.2852 15.775 20.7452 16.935 19.8452L15.495 18.4052C14.745 18.9452 13.905 19.2952 13.035 19.4352ZM16.925 17.0152L18.345 18.4252C19.245 17.2652 19.795 15.9252 19.965 14.5352H17.945C17.805 15.4052 17.465 16.2552 16.925 17.0152Z"/></svg>

<svg xmlns="http://www.w3.org/2000/svg" width="24" height="24" viewBox="0 0 24 24" fill='currentColor'><path d="m15.585 7.085-4.55-4.55v3.07c-3.94.49-7 3.85-7 7.93s3.05 7.44 7 7.93v-2.02c-2.84-.48-5-2.94-5-5.91s2.16-5.43 5-5.91v3.91zm4.38 5.45a7.9 7.9 0 0 0-1.62-3.89l-1.42 1.42c.54.75.88 1.6 1.02 2.47zm-6.93 6.9v2.02c1.39-.17 2.74-.71 3.9-1.61l-1.44-1.44c-.75.54-1.59.89-2.46 1.03m3.89-2.42 1.42 1.41c.9-1.16 1.45-2.5 1.62-3.89h-2.02c-.14.87-.48 1.72-1.02 2.48"/></svg>
